X: 8092
T: Contentment Is Wealth
R: jig
M: 6/8
K: Edorian
|:~g3 edB|BAB EFG|FAF DFA|dAF AFD|
~g3 edB|BAB EGA|BdB AGF|GED E3:|
|:~e3 Beg|bgf gfe|ded Adf|afd fed|
~e3 Beg|bgf gfe|BdB AGF|GED E3:|

